X: 3034
T: SLEEPING MAGGIE
Q:"Reel."
R: Reel.
%R:reel
B: James Kerr "Merry Melodies" v.3 p.6 #34
Z: 2016 John Chambers <jc:trillian.mit.edu>
M: C
L: 1/8
K: Bm
ug |\
f2(Bb) fBde | f2(Bb) eAce |\
f2(Bb) fBde | f^gaf eAc ::\
e |\
fBdB fBde | fBdB eAce |\
fBdB fBde | f^gaf eAc :|

%%sep 1 1 500
%%sep 1 1 500

